korla/status/symbolic/network-cellular-4g-symbolic.svg

<svg style="clip-rule:evenodd;fill-rule:evenodd;stroke-linejoin:round;stroke-miterlimit:2" version="1.1" viewBox="0 0 16 16" xmlns="http://www.w3.org/2000/svg">
 <path d="m1.623 3h2v4h1.377v-4h2v10h-2v-4h-1.377c-2 0-2-2-2-2v-4z" style="fill:rgb(223,223,223)"/>
 <path d="m10 3h2c2 0 2 2 2 2v1h-2v-1h-2v6h2v-2h-1v-1.969h3v3.938s0 2.031-2 2.031h-2s-2 0-2-2v-6c0-2 2-2 2-2z" style="fill:rgb(223,223,223)"/>
</svg>

<svg xmlns="http://www.w3.org/2000/svg" width="16" height="16" version="1.1">
 <path style="fill:#dfdfdf" d="M 2 1 C 0.892 1 0 1.892 0 3 L 0 13 C 0 14.108 0.892 15 2 15 L 14 15 C 15.108 15 16 14.108 16 13 L 16 3 C 16 1.892 15.108 1 14 1 L 2 1 z M 2 3 L 4 3 L 4 7 L 5 7 L 5 3 L 7 3 L 7 13 L 5 13 L 5 9 L 4 9 C 2 9 2 7 2 7 L 2 3 z M 10 3 L 12 3 C 14 3 14 5 14 5 L 14 6 L 12 6 L 12 5 L 10 5 L 10 11 L 12 11 L 12 9 L 11 9 L 11 7.0312 L 14 7.0312 L 14 10.969 C 14 10.969 14 13 12 13 L 10 13 C 10 13 8 13 8 11 L 8 5 C 8 3 10 3 10 3 z"/>
</svg>
